Adwaita++/status/32/semi-starred.svg

<svg height="32" width="32" xmlns="http://www.w3.org/2000/svg">
  <path d="m15.5 2.9997517c-1.307197.018684-2.240232.8058961-2.677734 2.109375l.01758-.058594-2.054688 5.9492193h-6.9257809c-.015101-.000242-.029821-.000242-.044922 0-.8271266.02681-1.5721928.512609-2.0976562 1.152344-1.13642101 1.304496-.89620891 3.657981.546875 4.630859l5.4453125 3.978516-2.1132813 6.566406c-.00235.0073-.00365.01418-.00586.02148-.322905 1.060759-.019257 2.152805.7929687 2.900391.00587.0055.011571.01219.017578.01758.9760412.867686 2.3489216.977964 3.4511713.259766.02097-.01357.04034-.02832.06055-.04297l5.5878869-3.984372 5.587891 3.984375c.02021.01466.03958.02941.06055.04297 1.10225.718198 2.475129.60792 3.451171-.259766.006-.0054.01167-.01206.01758-.01758.812225-.747586 1.115873-1.839632.792968-2.900391-.0022-.0073-.0035-.01421-.0059-.02148l-2.113281-6.566406 5.445312-3.978516c1.443084-.972878 1.683296-3.326363.546875-4.630859-.525463-.639735-1.270529-1.125534-2.097656-1.152344-.0151-.000242-.02982-.000242-.04492 0h-6.925781l-2.054688-5.9492191.01758.058594c-.437469-1.3034821-1.370504-2.0906942-2.677701-2.1093782z" opacity=".2"/>
  <path d="m15.5 2c.173732.0024832.339771.0217405.5.0507812-.160229-.0290408-.326268-.048298-.5-.0507812zm.5.0507812v23.8066408l5.087891 3.626953c.02021.01466.039576.029409.060547.042969 1.10225.718198 2.475129.60792 3.451171-.259766.006-.0054.011668-.012058.017579-.017578.812225-.747586 1.115873-1.839632.792968-2.900391-.0022-.0073-.003459-.014214-.005859-.021484l-2.113281-6.566406 5.445312-3.978516c1.443084-.972878 1.683296-3.326363.546875-4.630859-.525463-.639735-1.270529-1.125534-2.097656-1.152344-.0151-.0002422-.029822-.0002422-.044922 0h-6.925781l-2.054688-5.9492188.017578.0585938c-.379356-1.130241-1.132365-1.8691251-2.177734-2.0585938z" fill="#ffbc2c"/>
  <path d="m15.5 2c-1.307197.018684-2.240232.8058961-2.677734 2.109375l.017578-.0585938-2.054688 5.9492188h-6.9257809c-.015101-.0002422-.0298209-.0002422-.0449219 0-.8271266.02681-1.5721928.512609-2.0976562 1.152344-.5940824.681946-.80344011 1.648451-.6699219 2.55664.0805089-.574429.2932306-1.124237.6699219-1.55664.5254634-.639735 1.2705296-1.125534 2.0976562-1.152344.015101-.000242.029821-.000242.044922 0h6.9257808l2.054688-5.9492188-.01758.058594c.437504-1.3034791 1.370539-2.0906912 2.677736-2.1093752 1.307197.018684 2.240265.8058929 2.677734 2.109375l-.017578-.0585938 2.054688 5.9492188h6.925781c.0151-.000242.02982-.000242.04492 0 .827127.02681 1.572193.512609 2.097656 1.152344.376691.432403.589413.982211.669922 1.55664.133518-.908189-.07584-1.874694-.669922-2.55664-.525461-.639735-1.270527-1.125534-2.097654-1.152344-.0151-.0002422-.02982-.0002422-.04492 0h-6.925781l-2.054688-5.9492188.01758.058594c-.437506-1.3034791-1.370541-2.0906912-2.677738-2.1093752zm-8.0507811 18.572266-1.8535157 5.755859c-.00235.0073-.00365.01418-.00586.02148-.1364147.448129-.1545077.901066-.076172 1.332032.020171-.110727.042543-.22156.076172-.332032.00221-.0073.00351-.01418.00586-.02148l2.1132813-6.566406zm16.1015621 0-.259765.189453 2.113281 6.566406c.0024.0073.0037.01418.0059.02148.03363.110472.056.221305.07617.332032.07834-.430966.06024-.883903-.07617-1.332032-.0022-.0073-.0035-.01421-.0059-.02148z" fill="#fff" opacity=".2"/>
  <path d="m15.5 2c-1.307197.018684-2.240232.8058961-2.677734 2.109375l.017578-.0585938-2.054688 5.9492188h-6.925781c-.015101-.0002422-.0298209-.0002422-.0449219 0-.8271266.02681-1.5721928.512609-2.0976562 1.152344-1.13642106 1.304496-.89620895 3.657981.546875 4.630859l5.4453125 3.978516-2.1132813 6.566406c-.00235.00727-.0036495.014184-.0058593.021484-.3229051 1.060759-.0192574 2.152805.7929687 2.900391.005904.00552.0115681.012178.0175781.017578.9760412.867686 2.348922.977964 3.4511719.259766.02097-.01357.0403369-.028319.0605469-.042969l5.5878906-3.984375.5.357422v-23.8066408c-.160229-.0290408-.326268-.048298-.5-.0507812z" fill="#8e8e8e"/>
</svg>

<svg xmlns="http://www.w3.org/2000/svg" width="32" height="32" version="1">
 <path d="m 15.5,2.9997517 c -1.307197,0.018684 -2.240232,0.8058961 -2.677734,2.109375 l 0.01758,-0.058594 -2.054688,5.9492193 -6.9257809,0 c -0.015101,-2.42e-4 -0.029821,-2.42e-4 -0.044922,0 -0.8271266,0.02681 -1.5721928,0.512609 -2.0976562,1.152344 -1.13642101,1.304496 -0.89620891,3.657981 0.546875,4.630859 l 5.4453125,3.978516 -2.1132813,6.566406 c -0.00235,0.0073 -0.00365,0.01418 -0.00586,0.02148 -0.322905,1.060759 -0.019257,2.152805 0.7929687,2.900391 0.00587,0.0055 0.011571,0.01219 0.017578,0.01758 0.9760412,0.867686 2.3489216,0.977964 3.4511713,0.259766 0.02097,-0.01357 0.04034,-0.02832 0.06055,-0.04297 L 15.5,26.499752 l 5.587891,3.984375 c 0.02021,0.01466 0.03958,0.02941 0.06055,0.04297 1.10225,0.718198 2.475129,0.60792 3.451171,-0.259766 0.006,-0.0054 0.01167,-0.01206 0.01758,-0.01758 0.812225,-0.747586 1.115873,-1.839632 0.792968,-2.900391 -0.0022,-0.0073 -0.0035,-0.01421 -0.0059,-0.02148 l -2.113281,-6.566406 5.445312,-3.978516 c 1.443084,-0.972878 1.683296,-3.326363 0.546875,-4.630859 -0.525463,-0.639735 -1.270529,-1.125534 -2.097656,-1.152344 -0.0151,-2.42e-4 -0.02982,-2.42e-4 -0.04492,0 l -6.925781,0 -2.054688,-5.9492191 0.01758,0.058594 C 17.740232,3.8056478 16.807197,3.0184357 15.5,2.9997517 Z" style="opacity:0.2"/>
 <path style="fill:#ffbc2c" d="M 15.5 2 C 15.673732 2.0024832 15.839771 2.0217405 16 2.0507812 C 15.839771 2.0217404 15.673732 2.0024832 15.5 2 z M 16 2.0507812 L 16 25.857422 L 21.087891 29.484375 C 21.108101 29.499035 21.127467 29.513784 21.148438 29.527344 C 22.250688 30.245542 23.623567 30.135264 24.599609 29.267578 C 24.605609 29.262178 24.611277 29.25552 24.617188 29.25 C 25.429413 28.502414 25.733061 27.410368 25.410156 26.349609 C 25.407956 26.342309 25.406697 26.335395 25.404297 26.328125 L 23.291016 19.761719 L 28.736328 15.783203 C 30.179412 14.810325 30.419624 12.45684 29.283203 11.152344 C 28.75774 10.512609 28.012674 10.02681 27.185547 10 C 27.170447 9.9997578 27.155725 9.9997578 27.140625 10 L 20.214844 10 L 18.160156 4.0507812 L 18.177734 4.109375 C 17.798378 2.979134 17.045369 2.2402499 16 2.0507812 z"/>
 <path d="M 15.5,2 C 14.192803,2.018684 13.259768,2.8058961 12.822266,4.109375 L 12.839844,4.0507812 10.785156,10 3.8593751,10 C 3.8442741,9.9997578 3.8295542,9.9997578 3.8144532,10 2.9873266,10.02681 2.2422604,10.512609 1.716797,11.152344 1.1227146,11.83429 0.91335689,12.800795 1.0468751,13.708984 1.127384,13.134555 1.3401057,12.584747 1.716797,12.152344 2.2422604,11.512609 2.9873266,11.02681 3.8144532,11 c 0.015101,-2.42e-4 0.029821,-2.42e-4 0.044922,0 l 6.9257808,0 2.054688,-5.9492188 -0.01758,0.058594 C 13.259768,3.8058961 14.192803,3.018684 15.5,3 c 1.307197,0.018684 2.240265,0.8058929 2.677734,2.109375 L 18.160156,5.0507812 20.214844,11 l 6.925781,0 c 0.0151,-2.42e-4 0.02982,-2.42e-4 0.04492,0 0.827127,0.02681 1.572193,0.512609 2.097656,1.152344 0.376691,0.432403 0.589413,0.982211 0.669922,1.55664 0.133518,-0.908189 -0.07584,-1.874694 -0.669922,-2.55664 C 28.75774,10.512609 28.012674,10.02681 27.185547,10 c -0.0151,-2.422e-4 -0.02982,-2.422e-4 -0.04492,0 l -6.925781,0 -2.054688,-5.9492188 0.01758,0.058594 C 17.740232,2.8058961 16.807197,2.018684 15.5,2 Z M 7.4492189,20.572266 5.5957032,26.328125 c -0.00235,0.0073 -0.00365,0.01418 -0.00586,0.02148 -0.1364147,0.448129 -0.1545077,0.901066 -0.076172,1.332032 0.020171,-0.110727 0.042543,-0.22156 0.076172,-0.332032 0.00221,-0.0073 0.00351,-0.01418 0.00586,-0.02148 L 7.7089845,20.761719 7.4492189,20.572266 Z m 16.1015621,0 -0.259765,0.189453 2.113281,6.566406 c 0.0024,0.0073 0.0037,0.01418 0.0059,0.02148 0.03363,0.110472 0.056,0.221305 0.07617,0.332032 0.07834,-0.430966 0.06024,-0.883903 -0.07617,-1.332032 -0.0022,-0.0073 -0.0035,-0.01421 -0.0059,-0.02148 l -1.853516,-5.755859 z" style="opacity:0.2;fill:#ffffff"/>
 <path style="fill:#8e8e8e" d="M 15.5 2 C 14.192803 2.018684 13.259768 2.8058961 12.822266 4.109375 L 12.839844 4.0507812 L 10.785156 10 L 3.859375 10 C 3.844274 9.9997578 3.8295541 9.9997578 3.8144531 10 C 2.9873265 10.02681 2.2422603 10.512609 1.7167969 11.152344 C 0.58037584 12.45684 0.82058795 14.810325 2.2636719 15.783203 L 7.7089844 19.761719 L 5.5957031 26.328125 C 5.5933531 26.335395 5.5920536 26.342309 5.5898438 26.349609 C 5.2669387 27.410368 5.5705864 28.502414 6.3828125 29.25 C 6.3887165 29.25552 6.3943806 29.262178 6.4003906 29.267578 C 7.3764318 30.135264 8.7493126 30.245542 9.8515625 29.527344 C 9.8725325 29.513774 9.8918994 29.499025 9.9121094 29.484375 L 15.5 25.5 L 16 25.857422 L 16 2.0507812 C 15.839771 2.0217404 15.673732 2.0024832 15.5 2 z"/>
</svg>
